X:82
T:Reel 82
M:2/4
K:Gmaj
L:1/8
G,2 B,DGB dB |ce dcAG AF |GF GABA Bd | (3efg dcBG G2 |G2 Bcde dB |AB cdeA Af |gf gdeg dB |cA dcBG G2 |Bd gdBd ed |cB AGFD EF |gd Bdgd eG |fd gabg G2 |gd gded cB |cd efge dc |Bd efge dc |Bd AcBG G2 |
